svg/Octicons/clock.svg

<svg height="1024" width="896" xmlns="http://www.w3.org/2000/svg">
  <path d="M384 576h256l64-64-64-64H512V256l-64-64-64 64V576zM448 64C200.562 64 0 264.562 0 512c0 247.438 200.562 448 448 448 247.438 0 448-200.562 448-448C896 264.562 695.438 64 448 64zM448 832c-176.25 0-320-143.75-320-320 0-175.938 144.188-319.5 320-320 175.812 0.5 320 144.062 320 320C768 688.25 624.25 832 448 832z" />
</svg>

<svg xmlns="http://www.w3.org/2000/svg" viewBox="0 0 896 1024"><path d="m384 576h256l64-64-64-64h-128v-192l-64-64-64 64v320m64-512c-247.44 0-448 200.56-448 448 0 247.44 200.56 448 448 448 247.44 0 448-200.56 448-448 0-247.44-200.56-448-448-448m0 768c-176.25 0-320-143.75-320-320 0-175.94 144.19-319.5 320-320 175.81.5 320 144.06 320 320 0 176.25-143.75 320-320 320"/></svg>
